X:16261
T:Srna steklt
T:"Steak march", "steak-carrying tune"
A:Srna, n. Dalarna
O:Sweden
M:2/4
L:1/8
K:Dm
Ad fa|ef/g/ a>g|fe/d/ e^c|A4|\
Ad fa|ef/g/ a>g|fe/d/ e^c|[1d4:|[2d3e::\
f>e fa|e3 ^c|d>^c df|e3 e/g/|fe df/a/|\
ge =ce/g/|fe/d/ e^c|[1d3e:|[2d4|]\
T:Oktav
A,D FA|EF/G/ A>G|FE/D/ E^C|A,4|\
A,D FA|EF/G/ A>G|FE/D/ E^C|[1D4:|[2D3E::\
F>E FA|E3 ^C|D>^C DF|E3 E/G/|FE DF/A/|\
GE =CE/G/|FE/D/ E^C|[1D3E:|[2D4|]\
